X: 21365
T: Kerry Kesh
R: jig
M: 6/8
K: Amajor
|:ec|"A"A2 A ABc|"E7"BcA Bce|"A"fea fec|ecA "E7"BAF|
"A"E2 A ABc|"E7"BcA Bce|"A"fea fec|"E7"BAG "A"A:|
|:"A"cAA eAA|"D"fec "E7"ecB|"A"cAA eAA|"D"fec "E7"BAB|
"A"cAA eAA|"D"fec "E7"ecB|"A"ABc "E7"BAB|"A"cAA A3:|

